X: 1
T: Greenwich Park    [F]
T: Come Sweet Maid
O: Playford 1628
Z: 1997 by John Chambers <jc@trillian.mit.edu>
B: Karpeles & Schofield p.22(F), p.52(G); Barnes p.46
B: "The Compleat Country Dancing-Master" printed by John Walsh, London ca. 1740
M: C|
L: 1/4
K: F
|: "F"F2c2 | A3d | cAGF | "C7"GEDC | "F"F2c2 | A3d | cf"G7"dg | "C"e3z :|
|: "C7"e2g2 | c3d/e/ | "F"fcc/B/A | "Bb"d3c | "Gm"dB B/A/G/F/ | "C7"EGCc "I"| BAG>F | "F"F3z :|
